X: 40282
T: Todd Graham's
R: reel
M: 4/4
K: Aminor
A,G,A,C FDDF|E2Gc ECCD|A,G,A,C FDDF|1 E2Gc EDD2:|2 E2Gc EDDA||
FDDa cdea|gedc AGEC|FDDa cded|c2GE FDDE|
FDDa cdea|gedc AGEC|A,G,A,C FDDF|E2Gc EDD2||

